X:5
T:The Old Bush
R:reel
C:traditional Irish
D:An Historic Recording of Irish Music
Z:Paul Stewart Cranford (P.S.C.), <http://www.cranfordpub.com>
H:
L:1/8
Q:333
M:C|
K:Dmix
A2 GA cAAG|Adde fded|A2 GA cAAc|dfed cAdc|
A2 GA cAAG|Adde f2 fg|afge fdec|1dfed cAdc:|2dfed cAA z||
|:e(g ~g2) e(c ~c2)|efge c3 d|e(g ~g2) aege|dfed cAA z|
e(g ~g2) e(c ~c2)|efge defg|afge fdec|1dfed cAA z:|2dfed cAdc|]
